source/images/buyers-guide/icon-face-sad.svg

<svg version="1.1" id="Layer_1" xmlns="http://www.w3.org/2000/svg" x="0" y="0" viewBox="0 0 24 24" xml:space="preserve"><style>.st23{fill:#ed3648}</style><path class="st23" d="M12 0C5.4 0 0 5.4 0 12s5.4 12 12 12 12-5.4 12-12S18.6 0 12 0zm0 22.5C6.2 22.5 1.5 17.8 1.5 12S6.2 1.5 12 1.5 22.5 6.2 22.5 12 17.8 22.5 12 22.5z"/><path class="st23" d="M12 14.4c-2 0-3.9.8-5.3 2.2-.3.3-.3.8 0 1.1.1.1.3.2.5.2s.4-.1.5-.2c1.1-1.1 2.6-1.8 4.2-1.8s3 .6 4.2 1.7c.3.3.8.3 1.1 0 .3-.3.3-.8 0-1.1-1.4-1.4-3.2-2.1-5.2-2.1zM7.9 11.1c.7 0 1.2-.5 1.2-1.2s-.6-1.1-1.2-1.1-1.2.5-1.2 1.1.5 1.2 1.2 1.2zm0-1.2v.1s-.1 0 0-.1zM16.1 11.1c.7 0 1.2-.5 1.2-1.2s-.5-1.2-1.2-1.2-1.2.5-1.2 1.2.6 1.2 1.2 1.2zm0-1.2v.1s-.1 0 0-.1z"/></svg>

<?xml version="1.0" encoding="utf-8"?>
<!-- Generator: Adobe Illustrator 22.0.1, SVG Export Plug-In . SVG Version: 6.00 Build 0)  -->
<svg version="1.1" id="Layer_1" xmlns="http://www.w3.org/2000/svg" xmlns:xlink="http://www.w3.org/1999/xlink" x="0px" y="0px"
	 viewBox="0 0 24 24" style="enable-background:new 0 0 24 24;" xml:space="preserve">
<style type="text/css">
	.st0{clip-path:url(#SVGID_2_);fill:#4753A4;}
	.st1{fill:none;stroke:#4753A4;stroke-width:0.5;stroke-miterlimit:10;}
	.st2{clip-path:url(#SVGID_4_);fill:#4753A4;}
	.st3{clip-path:url(#SVGID_6_);fill:#4753A4;}
	.st4{clip-path:url(#SVGID_8_);fill:#4753A4;}
	.st5{clip-path:url(#SVGID_10_);fill:#ED3749;}
	.st6{fill:none;stroke:#ED3749;stroke-width:0.5;stroke-miterlimit:10;}
	.st7{clip-path:url(#SVGID_12_);fill:#ED3749;}
	.st8{clip-path:url(#SVGID_14_);fill:#ED3749;}
	.st9{clip-path:url(#SVGID_16_);fill:#ED3749;}
	.st10{clip-path:url(#SVGID_18_);fill:#4CBFAA;}
	.st11{fill:none;stroke:#4CBFAA;stroke-width:0.5;stroke-miterlimit:10;}
	.st12{clip-path:url(#SVGID_20_);fill:#4CBFAA;}
	.st13{clip-path:url(#SVGID_22_);fill:#4CBFAA;}
	.st14{clip-path:url(#SVGID_24_);fill:none;stroke:#4CBFAA;stroke-width:2;stroke-miterlimit:10;}
	.st15{fill:#010101;}
	.st16{fill:none;stroke:#000000;stroke-linecap:round;stroke-linejoin:round;stroke-miterlimit:10;}
	.st17{fill:none;stroke:#ED3648;stroke-width:1.5;stroke-linecap:round;stroke-linejoin:round;stroke-miterlimit:10;}
	.st18{fill:none;stroke:#ED3648;stroke-width:1.25;stroke-linecap:round;stroke-linejoin:round;stroke-miterlimit:10;}
	.st19{fill:none;stroke:#4CBFA9;stroke-width:1.5;stroke-linecap:round;stroke-linejoin:round;stroke-miterlimit:10;}
	.st20{fill:none;stroke:#4CBFA9;stroke-width:1.25;stroke-linecap:round;stroke-linejoin:round;stroke-miterlimit:10;}
	.st21{fill:none;stroke:#4652A4;stroke-width:1.5;stroke-linecap:round;stroke-linejoin:round;stroke-miterlimit:10;}
	.st22{fill:none;stroke:#4652A4;stroke-width:1.25;stroke-linecap:round;stroke-linejoin:round;stroke-miterlimit:10;}
	.st23{fill:#ED3648;}
	.st24{fill:#4652A4;}
	.st25{fill:#4CBFA9;}
</style>
<g>
	<path class="st23" d="M12,0C5.4,0,0,5.4,0,12c0,6.6,5.4,12,12,12s12-5.4,12-12C24,5.4,18.6,0,12,0z M12,22.5
		C6.2,22.5,1.5,17.8,1.5,12C1.5,6.2,6.2,1.5,12,1.5S22.5,6.2,22.5,12C22.5,17.8,17.8,22.5,12,22.5z"/>
	<path class="st23" d="M12,14.4c-2,0-3.9,0.8-5.3,2.2c-0.3,0.3-0.3,0.8,0,1.1c0.1,0.1,0.3,0.2,0.5,0.2s0.4-0.1,0.5-0.2
		c1.1-1.1,2.6-1.8,4.2-1.8c1.6,0,3,0.6,4.2,1.7c0.3,0.3,0.8,0.3,1.1,0c0.3-0.3,0.3-0.8,0-1.1C15.8,15.1,14,14.4,12,14.4z"/>
	<path class="st23" d="M7.9,11.1c0.7,0,1.2-0.5,1.2-1.2S8.5,8.8,7.9,8.8S6.7,9.3,6.7,9.9S7.2,11.1,7.9,11.1z M7.9,9.9V10
		C7.9,10,7.8,10,7.9,9.9L7.9,9.9z"/>
	<path class="st23" d="M16.1,11.1c0.7,0,1.2-0.5,1.2-1.2s-0.5-1.2-1.2-1.2c-0.7,0-1.2,0.5-1.2,1.2S15.5,11.1,16.1,11.1z M16.1,9.9
		V10C16.1,10,16,10,16.1,9.9L16.1,9.9z"/>
</g>
</svg>
